actions/22x22-light/gtk-select-font.svg

<svg xmlns="http://www.w3.org/2000/svg" viewBox="0 0 22 22">
 <defs id="defs3051">
   <style type="text/css" id="current-color-scheme">
     .ColorScheme-Text {
       color:#4d4d4d;
     }
     </style>
 </defs>
   <path
      style="fill:currentColor;fill-opacity:1;stroke:none"
      d="m9.9101562 4-3.3144531 9.59375-.1230469.40625-1.4726562 4h1.6582031l1.625-4.4375h5.4335939l1.625 4.4375h1.658203l-1.472656-4-.123047-.40625-3.314453-9.59375h-.214844-1.75zm1.1054688 1.9375 2.179687 6.34375h-4.3906245z"
      class="ColorScheme-Text" />
   <path
      style="fill:currentColor;fill-opacity:1;stroke:none"
      d="m18 3c-.55229 0-1 .4477-1 1s .44771 1 1 1c .55228 0 1-.4477 1-1s-.44772-1-1-1zm0 4c-.55229 0-1 .4477-1 1s .44771 1 1 1c .55228 0 1-.4477 1-1s-.44772-1-1-1zm0 4c-.55229 0-1 .4477-1 1s .44771 1 1 1c .55228 0 1-.4477 1-1s-.44772-1-1-1z"
      class="ColorScheme-Text" />
</svg>

<svg xmlns="http://www.w3.org/2000/svg" viewBox="0 0 22 22">
  <defs id="defs3051">
    <style type="text/css" id="current-color-scheme">
      .ColorScheme-Text {
        color:#4d4d4d;
      }
      </style>
  </defs>
 <path 
     style="fill:currentColor;fill-opacity:1;stroke:none" 
     d="M 9.9101562 4 L 6.5957031 13.59375 L 6.4726562 14 L 5 18 L 6.6582031 18 L 8.2832031 13.5625 L 13.716797 13.5625 L 15.341797 18 L 17 18 L 15.527344 14 L 15.404297 13.59375 L 12.089844 4 L 11.875 4 L 10.125 4 L 9.9101562 4 z M 11.015625 5.9375 L 13.195312 12.28125 L 8.8046875 12.28125 L 11.015625 5.9375 z "
     class="ColorScheme-Text"
     />
 <path 
     style="fill:currentColor;fill-opacity:1;stroke:none"
     d="M 18 3 C 17.44771 3 17 3.4477 17 4 C 17 4.5523 17.44771 5 18 5 C 18.55228 5 19 4.5523 19 4 C 19 3.4477 18.55228 3 18 3 z M 18 7 C 17.44771 7 17 7.4477 17 8 C 17 8.5523 17.44771 9 18 9 C 18.55228 9 19 8.5523 19 8 C 19 7.4477 18.55228 7 18 7 z M 18 11 C 17.44771 11 17 11.4477 17 12 C 17 12.5523 17.44771 13 18 13 C 18.55228 13 19 12.5523 19 12 C 19 11.4477 18.55228 11 18 11 z "
     class="ColorScheme-Text"
     />
</svg>
